src/16/actions/office-chart-polar-stacked.svg

<svg xmlns="http://www.w3.org/2000/svg" viewBox="0 0 16 16">
  <defs id="defs3051">
    <style type="text/css" id="current-color-scheme">
      .ColorScheme-Text {
        color:#5d656b;
      }
      </style>
  </defs>
 <path style="fill:currentColor;fill-opacity:1;stroke:none" 
     d="M 8 2 A 6.0000019 6.0000148 0 0 0 7.1328125 2.0703125 A 6.0000019 6.0000148 0 0 0 6.5742188 2.1796875 A 6 6 0 0 0 6.4746094 2.2011719 C 6.4489601 2.2078788 6.4237524 2.2152276 6.3984375 2.2226562 A 6.0000019 6.0000148 0 0 0 6.0019531 2.3496094 A 6 6 0 0 0 5.8574219 2.3984375 C 5.8237686 2.4112915 5.7907636 2.4252646 5.7578125 2.4394531 A 6.0000019 6.0000148 0 0 0 5.4765625 2.5644531 A 6 6 0 0 0 5.2949219 2.6464844 C 5.2709205 2.6586211 5.2478713 2.6722538 5.2246094 2.6855469 A 6.0000019 6.0000148 0 0 0 4.9355469 2.8496094 A 6 6 0 0 0 4.7578125 2.9511719 A 6 6 0 0 0 4.6816406 3.0058594 A 6.0000019 6.0000148 0 0 0 4.4394531 3.1777344 A 6 6 0 0 0 4.2695312 3.3007812 A 6 6 0 0 0 4.2070312 3.3554688 A 6.0000019 6.0000148 0 0 0 3.9453125 3.5878906 C 3.89408 3.6329269 3.8416512 3.6766439 3.7929688 3.7246094 A 6 6 0 0 0 3.7597656 3.7597656 A 6.0000019 6.0000148 0 0 0 3.4765625 4.0703125 C 3.440745 4.1100346 3.4031281 4.1481436 3.3691406 4.1894531 A 6 6 0 0 0 3.3574219 4.2050781 A 6.0000019 6.0000148 0 0 0 2 8 A 6.0000019 6.0000148 0 0 0 8 14 A 6.0000019 6.0000148 0 0 0 14 8 A 6.0000019 6.0000148 0 0 0 13.558594 5.7578125 A 6.0000019 6.0000148 0 0 0 8 2 z M 8 3 A 5 5 0 0 1 10.646484 3.765625 L 9.0585938 6.3066406 C 9.5780535 6.6315006 9.9288819 7.1879144 9.9824219 7.8339844 L 12.980469 7.5839844 A 5 5 0 0 1 13 8 A 5 5 0 0 1 8 13 L 8 11.5 L 8 10 C 7.446 10 6.9454844 9.7775156 6.5839844 9.4160156 L 4.4667969 11.533203 A 5 5 0 0 1 3 8 A 5 5 0 0 1 4.0996094 4.8789062 L 6.4433594 6.7539062 C 6.8092894 6.2970963 7.36652 6 8 6 L 8 5.5 L 8 3.5 L 8 3 z M 4.5644531 11.625 C 4.7457057 11.796753 4.9370199 11.958397 5.1425781 12.101562 A 5 5 0 0 1 4.5644531 11.625 z M 5.2988281 12.201172 C 5.5125346 12.33848 5.7361406 12.462436 5.9707031 12.566406 A 5 5 0 0 1 5.2988281 12.201172 z M 6.1289062 12.632812 C 6.3937222 12.739353 6.6678118 12.826309 6.953125 12.886719 A 5 5 0 0 1 6.1289062 12.632812 z "
     class="ColorScheme-Text"
     />
</svg>

<svg xmlns="http://www.w3.org/2000/svg" viewBox="0 0 16 16"><path d="M8 2a6 6 0 0 0-.867.07 6 6 0 0 0-.559.11 6 6 0 0 0-.1.021l-.076.022a6 6 0 0 0-.396.127 6 6 0 0 0-.145.048 2.577 2.577 0 0 0-.1.041 6 6 0 0 0-.28.125 6 6 0 0 0-.182.082l-.07.04a6 6 0 0 0-.29.164 6 6 0 0 0-.177.101 6 6 0 0 0-.076.055 6 6 0 0 0-.243.172 6 6 0 0 0-.17.123 6 6 0 0 0-.062.054 6 6 0 0 0-.262.233c-.05.045-.103.089-.152.137a6 6 0 0 0-.033.035 6 6 0 0 0-.283.31c-.036.04-.074.078-.108.12a6 6 0 0 0-.012.015A6 6 0 0 0 2 8a6 6 0 0 0 6 6 6 6 0 0 0 6-6 6 6 0 0 0-.441-2.242A6 6 0 0 0 8 2zm0 1a5 5 0 0 1 2.646.766L9.06 6.306c.52.326.87.882.923 1.528l2.998-.25A5 5 0 0 1 13 8a5 5 0 0 1-5 5v-3a1.994 1.994 0 0 1-1.416-.584l-2.117 2.117A5 5 0 0 1 3 8a5 5 0 0 1 1.1-3.121l2.343 1.875A1.988 1.988 0 0 1 8 6V3zm-3.436 8.625c.182.172.373.333.579.477a5 5 0 0 1-.579-.477zm.735.576c.214.137.437.261.672.365a5 5 0 0 1-.672-.365zm.83.432c.265.106.539.193.824.254a5 5 0 0 1-.824-.254z" fill="currentColor" color="#5d656b"/></svg>
